X:1
T:Freu Dich Sehr, 87.87.77.88
T:Harmonized by Johann Sebastian Bach (1685-1750)
T:Freu Dich Sehr, 87.87.77.88
T:Public Domain
C:Harmonized by Johann Sebastian Bach (1685-1750)
Z:Public Domain
%%score ( 1 2 ) ( 3 4 )
L:1/8
M:4/4
K:F
V:1 treble 
V:2 treble 
V:3 bass 
V:4 bass 
V:1
 x8 |: [CF]2 [CG]2 [CA]2 [CG]2 | (C=B,) [CE]2 [B,D]2 [G,C]2 | [DF]2 [CG]2 [CA]2 [GB]2 | %4
 [CA]2 [CG]2 [CF]4 :| [FA]2 [FB]2 [Fc]2 [FB]2 | A2 z E [FA]4 | [Fc]2 [Fc]2 d2 z E x | %8
 [DB]2 (CD) [EG]4 | A2 z E (DE)([FA][EG]) | [DF]2 [EG]2 [FA]4 | [DF]4 (AB) [Gc]2 | %12
 [FB]2 (CD) [EG]2 [FA]2 | (F2 E2) [CF]4 |] %14
V:2
 x8 |: x8 | F2 x6 | x8 | x8 :| x8 | F3 G2 x3 | x4 F3 c2 | x2 A2 x4 | F3 c2 B2 x | x8 | x4 F2 x2 | %12
 x2 A2 x4 | G4 x4 |] %14
V:3
 x8 |: [F,A,]2 [E,G,]2 F,2 z E, | [D,F,]2 (E,F,) (G,F,) [C,E,]2 | [D,A,]2 [E,G,]2 (F,G,)(D,E,) | %4
 (A,,B,,) z E, [F,,A,]4 :| F,E, [D,D]2 [C,G,]2 (D,E,) | [F,C]2 [C,C]2 [F,,C]4 | %7
 (F,_E,)(D,C,) (B,A,) [C,G,]2 x | ([D,F,][E,G,])(A,=B,) [C,C]4 | (CB,) [F,,A,]2 [G,,B,]2 [A,,C]2 | %10
 ([B,,D][A,,C]) [G,,B,]2 (F,,G,,A,,F,,) | [B,,B,]4 [F,C]2 [E,C]2 | %12
 [D,F,][E,G,](A,B,) [B,,C]2 (A,,B,,) | (C3 B,) [F,,A,]4 |] %14
V:4
 x8 |: x4 F,2 C,2 | x2 G,2 G,2 x2 | x4 F,2 G,,2 | F,3 B,,2 x3 :| C2 x3 D2 x | x8 | %7
 A,2 A,2 B,,2 x3 | x2 F,2 x4 | F,2 x6 | x4 C4 | x8 | x2 F,2 x C2 x | C,4 x4 |] %14

